src/assets/logos/bigchaindb.svg

<svg height="57" viewBox="0 0 288 57" width="288" xmlns="http://www.w3.org/2000/svg"><path d="m260.079891 56.0889455c-15.322873 0-27.744673-12.418225-27.745231-27.7372469s12.420336-27.73815165 27.743209-27.73926788 27.745578 12.41620378 27.747253 27.73522558c-.016711 15.3129822-12.428401 27.7229093-27.745231 27.7412892zm0-52.6569084c-13.763581.00167438-24.919967 11.1575184-24.91885 24.9176401.001116 13.7601218 11.159312 24.9141561 24.922893 24.9135981s24.920872-11.1554972 24.920873-24.915619c-.016714-13.754773-11.166683-24.90058401-24.924916-24.9156192z"/><path d="m247.737221 15.9868654h5.273686c2.021731 0 3.570378.5649319 4.645939 1.6947957s1.61132 2.7064179 1.607276 4.7296624v11.6270868c0 2.3284494-.565074 4.0464889-1.695222 5.1541193-1.130147 1.1076304-2.753598 1.660435-4.870351 1.6584139l-4.961328.0000055zm3.563301 21.5078367h1.649733c1.000757 0 1.708363-.2506315 2.122818-.7518949s.623704-1.2865088.627748-2.3557357v-11.975748c0-.978272-.202174-1.7352202-.60652-2.2708443-.404346-.5356242-1.119028-.8034362-2.144046-.8034362h-1.640635zm11.31462-21.5078367h5.194839c.998106-.0265646 1.991045.1519544 2.917358.5245074.753555.3138513 1.427896.7912595 1.974221 1.3976759.510602.5796091.886538 1.2650298 1.100833 2.0070747.221874.7654923.333184 1.558757.330553 2.3557357v.9095505c.009539.5740127-.043336 1.1473625-.157695 1.7099549-.091328.4266187-.249997.8359849-.470053 1.2127339-.206743.3457911-.465526.6576841-.767247.9247097-.323796.2836292-.674162.5354232-1.046246.751895.799618.3604196 1.452227.9829158 1.849884 1.7645279.404347.7801923.60652 1.8221327.60652 3.1258219v1.3976758c0 2.1889847-.529694 3.864579-1.589081 5.0267823-1.059387 1.1622032-2.753598 1.7443156-5.082633 1.7463368h-4.852155zm3.563302 10.1960607h1.607276c1.186756 0 1.984329-.2971198 2.392719-.8913594.40839-.5942397.610563-1.4613444.60652-2.6013144 0-1.1177364-.226434-1.9555335-.679302-2.5133911s-1.273691-.8367864-2.462469-.8367864h-1.467777zm0 11.1025795h1.537526c.580939.0316222 1.161279-.0721694 1.695222-.3031835.388595-.19221.710738-.4963205.924942-.8731685.220859-.4104418.352127-.8630492.38514-1.3279438.0465-.5113693.06975-1.0702377.06975-1.6766047.004895-.5486032-.030581-1.0968232-.106141-1.6402225-.054268-.423067-.208082-.8272459-.448824-1.1793839-.228587-.3205686-.544324-.568886-.90978-.715513-.503268-.1808854-1.036406-.2642315-1.570885-.2455785h-1.570885zm-244.8791833 15.5624083c-2.4655014 2.2556852-5.4980985 3.1894904-10.5079489 3.1894904h-9.82561461c-.49232598.0139108-.90632688-.3663905-.93403991-.8580093v-53.66347755c.02771303-.49161868.44171393-.87192001.93403991-.85800928h9.91052731c4.9249377 0 7.8817199.85800928 10.2532108 3.1894903 2.5413164 2.48913647 3.3055308 5.36634777 3.3055308 11.12380223 0 3.8898442-.5094763 7.3127858-3.5572364 10.1111694-1.0732005 1.026725-2.3821953 1.7742366-3.8119745 2.1768574 1.5617306.3190982 3.0011421 1.0738372 4.1516254 2.1768576 3.3024982 3.1106626 3.7240292 7.249117 3.7240292 11.1905024 0 6.8549787-1.1008327 9.8110179-3.6421491 12.2213264zm-10.3502539-48.06671028h-4.98255699c-.49232598-.01391072-.90632689.36639061-.9340399.85800928v18.8155674c.02771301.4916186.44171392.87192.9340399.8580092h4.98255699c5.434414 0 8.4912719-2.8772113 8.4912719-10.2657929 0-8.08893553-3.0568579-10.26579298-8.4912719-10.26579298zm0 24.57908558h-4.98255699c-.49232598-.0139108-.90632689.3663904-.9340399.8580093v20.8378012c.02771301.4916186.44171392.8719198.9340399.858009h4.98255699c5.7619345 0 8.9825526-2.4254677 8.9825526-11.2784255.0121304-8.0889355-3.2206181-11.2784259-8.9825526-11.2784259zm22.2622954 25.8191058v-53.66347755c.0277131-.49161868.4417138-.87192001.9340397-.85800928h3.1296403c.492326-.01391073.9063269.3663906.93404.85800928v53.66347755c-.0277131.4916188-.441714.8719201-.93404.8580093h-3.1296403c-.4923259.0139108-.9063266-.3663905-.9340397-.8580093zm26.562518 1.4795355c-3.8968873 0-6.9476802-1.2430522-8.9825526-3.2652862-3.8119747-3.7321888-4.245636-8.0889355-4.245636-25.0459881 0-16.9570525.4245636-21.3107674 4.245636-25.04598801 2.0409377-2.02223386 5.0917303-3.26528617 8.9825526-3.26528617 3.890822 0 6.6929418 1.16725643 8.7278143 3.0318349 2.3623932 2.24052597 3.6391167 5.55432151 3.7937789 9.38352898-.0115972.5011808-.4266366.898488-.9279745.8883276h-3.1296403c-.4835572.0145615-.8939446-.3517638-.93404-.8337546-.1819557-4.17483662-1.8043951-8.34664144-7.5238734-8.34664144-2.4564036 0-4.1516254.77918158-5.3373707 2.02223388-2.4564039 2.72865142-2.8809674 5.91207806-2.8809674 22.16877676 0 16.2566986.4245635 19.4461889 2.8809674 22.1687767 1.1857453 1.2430525 2.8809671 2.022234 5.3373707 2.022234 4.3214511 0 7.5420692-3.1106626 7.5420692-8.322387v-12.7579611c-.0277131-.4916186-.4417141-.8719201-.9340401-.8580093h-6.6140941v-3.8898442h11.6057489c.492326-.0139107.9063269.3663906.93404.8580093v16.6417418c.0060653 8.2374954-5.8407822 12.4456822-12.5397889 12.4456822zm41.1493098-2.64376c-2.0348727 1.634159-4.7460143 2.64376-8.3032509 2.64376-3.8968873 0-6.9476799-1.2430522-8.9825523-3.2652862-3.8119747-3.7321888-4.245636-8.0889355-4.245636-25.0459881 0-16.9570525.4245636-21.3107674 4.245636-25.04598801 2.0348724-2.02223386 5.085665-3.26528617 8.9825523-3.26528617 3.8119747 0 6.6080292 1.08842872 8.6429019 2.95603902 2.426078 2.23749415 3.639116 5.6119264 3.860496 9.44416566.000087.2454896-.099087.4805904-.274988.6518789-.1759.1712885-.413588.264218-.659052.2576716h-3.111444c-.482481.0146653-.892429-.3499375-.93404-.8307228-.112206-2.5012637-.7520845-4.8691268-2.3532956-6.47903112-1.1857457-1.16725645-2.7960546-1.86761031-5.155415-1.86761031-2.4564039 0-4.1516257.77918158-5.337371 2.02223388-2.4564039 2.7286514-2.8809674 5.91207805-2.8809674 22.16877675 0 16.2566988.4245635 19.4461891 2.8809674 22.1687766 1.1857453 1.2430525 2.8809671 2.022234 5.337371 2.022234 2.3714906 0 3.9817998-.7003537 5.155415-1.8676103 1.6012111-1.6099043 2.2441216-3.9777673 2.3532956-6.4790313.03241-.4880117.445034-.8630304.93404-.8489136h3.114477c.245464-.0065464.483152.086383.659052.2576716s.275075.4063894.274988.6518789c-.230478 4.0414359-1.519331 7.5037913-4.20318 9.750381zm31.39951 1.1642245v-25.1975798h-14.91128v25.1975798c-.027713.4916188-.441713.8719201-.934039.8580093h-3.129641c-.492326.0139108-.906326-.3663905-.93404-.8580093v-53.66347755c.027714-.49161868.441714-.87192001.93404-.85800928h3.135706c.489999-.01058066.900316.36880028.927974.85800928v24.25467915h14.91128v-24.25467915c.027713-.49161868.441714-.87192001.93404-.85800928h3.129641c.493488-.01558755.90934.36517834.937072.85800928v53.66347755c-.027713.4916188-.441714.8719201-.93404.8580093h-3.132673c-.492326.0139108-.906327-.3663905-.93404-.8580093zm34.977975.1697829-3.005303-13.7887853c-.102638-.415831-.481549-.7037315-.90978-.6912583h-12.533723c-.429126-.0121509-.808351.277251-.909779.6942902l-2.926457 13.7796895c-.101428.4170393-.480653.7064415-.909779.6942903h-3.499617c-.270464.0143249-.532445-.0967386-.710166-.3010674-.177722-.2043288-.251359-.4791281-.199613-.7449157l13.040167-53.66347752c.11095-.4073794.487724-.68486643.90978-.67003551h3.172096c.422928-.01448326.800002.26448098.909779.67306735l12.806658 53.66347758c.05068.2653298-.023447.5392237-.201034.7428059s-.438922.3142543-.708745.3001453h-3.408639c-.429577.0157103-.811532-.2713159-.915845-.6882264zm-10.180428-46.44771065-5.795293 26.81961155c-.043213.2623396.034214.5301728.210749.7290185.176534.1988457.43335.3074978.69903.2957415h9.837745c.266304.0119379.523735-.0971096.700397-.2966872.176662-.1995772.25362-.4682952.209382-.7311047zm19.869576 46.27792775v-53.66347755c.027713-.49161868.441714-.87192001.93404-.85800928h3.12964c.492326-.01391073.906327.3663906.93404.85800928v53.66347755c-.027713.4916188-.441714.8719201-.93404.8580093h-3.126607c-.493488.0155874-.909341-.3651783-.937073-.8580093zm36.263796.3031835-16.63986-42.6124394v42.3092559c-.027713.4916188-.441714.8719201-.93404.8580093h-3.12964c-.492326.0139108-.906327-.3663905-.93404-.8580093v-53.66347755c.027713-.49161868.441714-.87192001.93404-.85800928h3.405606c.382899-.01541794.736371.20454503.891584.55482579l16.63986 42.60031194-.097043-42.29712845c.026133-.49281995.440598-.87489347.93404-.86104111h3.144803c.484103-.0006888.883961.37774859.909779.86104111v53.66347755c-.027713.4916188-.441714.8719201-.93404.8580093h-3.311596c-.378546.0103919-.725907-.2087496-.879453-.5548258z"/></svg>

<svg xmlns="http://www.w3.org/2000/svg" width="288" height="57" viewBox="0 0 288 57">
  <path d="M260.079891,56.0889455 C244.757018,56.0889455 232.335218,43.6707205 232.33466,28.3516986 C232.334102,13.0326767 244.754996,0.613546953 260.077869,0.612430723 C275.400742,0.61131449 287.823447,13.0286345 287.825122,28.3476563 C287.808411,43.6606385 275.396721,56.0705656 260.079891,56.0889455 Z M260.079891,3.4320371 C246.31631,3.43371148 235.159924,14.5895555 235.161041,28.3496772 C235.162157,42.109799 246.320353,53.2638333 260.083934,53.2632753 C273.847515,53.2627173 285.004806,42.1077781 285.004807,28.3476563 C284.988093,14.5928833 273.838124,3.44707229 260.079891,3.4320371 Z"/>
  <path d="M247.737221,15.9868654 L253.010907,15.9868654 C255.032638,15.9868654 256.581285,16.5517973 257.656846,17.6816611 C258.732407,18.8115249 259.268166,20.388079 259.264122,22.4113235 L259.264122,34.0384103 C259.264122,36.3668597 258.699048,38.0848992 257.5689,39.1925296 C256.438753,40.30016 254.815302,40.8529646 252.698549,40.8509435 L247.737221,40.850949 L247.737221,15.9868654 Z M251.300522,37.4947021 L252.950255,37.4947021 C253.951012,37.4947021 254.658618,37.2440706 255.073073,36.7428072 C255.487528,36.2415438 255.696777,35.4562984 255.700821,34.3870715 L255.700821,22.4113235 C255.700821,21.4330515 255.498647,20.6761033 255.094301,20.1404792 C254.689955,19.604855 253.975273,19.337043 252.950255,19.337043 L251.30962,19.337043 L251.300522,37.4947021 Z M262.615142,15.9868654 L267.809981,15.9868654 C268.808087,15.9603008 269.801026,16.1388198 270.727339,16.5113728 C271.480894,16.8252241 272.155235,17.3026323 272.70156,17.9090487 C273.212162,18.4886578 273.588098,19.1740785 273.802393,19.9161234 C274.024267,20.6816157 274.135577,21.4748804 274.132946,22.2718591 L274.132946,23.1814096 C274.142485,23.7554223 274.08961,24.3287721 273.975251,24.8913645 C273.883923,25.3179832 273.725254,25.7273494 273.505198,26.1040984 C273.298455,26.4498895 273.039672,26.7617825 272.737951,27.0288081 C272.414155,27.3124373 272.063789,27.5642313 271.691705,27.7807031 C272.491323,28.1411227 273.143932,28.7636189 273.541589,29.545231 C273.945936,30.3254233 274.148109,31.3673637 274.148109,32.6710529 L274.148109,34.0687287 C274.148109,36.2577134 273.618415,37.9333077 272.559028,39.095511 C271.499641,40.2577142 269.80543,40.8398266 267.476395,40.8418478 L262.62424,40.8418478 L262.615142,15.9868654 Z M266.178444,26.1829261 L267.78572,26.1829261 C268.972476,26.1829261 269.770049,25.8858063 270.178439,25.2915667 C270.586829,24.697327 270.789002,23.8302223 270.784959,22.6902523 C270.784959,21.5725159 270.558525,20.7347188 270.105657,20.1768612 C269.652789,19.6190036 268.831966,19.3400748 267.643188,19.3400748 L266.175411,19.3400748 L266.178444,26.1829261 Z M266.178444,37.2855056 L267.71597,37.2855056 C268.296909,37.3171278 268.877249,37.2133362 269.411192,36.9823221 C269.799787,36.7901121 270.12193,36.4860016 270.336134,36.1091536 C270.556993,35.6987118 270.688261,35.2461044 270.721274,34.7812098 C270.767774,34.2698405 270.791024,33.7109721 270.791024,33.1046051 C270.795919,32.5560019 270.760443,32.0077819 270.684883,31.4643826 C270.630615,31.0413156 270.476801,30.6371367 270.236059,30.2849987 C270.007472,29.9644301 269.691735,29.7161127 269.326279,29.5694857 C268.823011,29.3886003 268.289873,29.3052542 267.755394,29.3239072 L266.184509,29.3239072 L266.178444,37.2855056 Z M21.2992607,52.8479139 C18.8337593,55.1035991 15.8011622,56.0374043 10.7913118,56.0374043 L0.965697186,56.0374043 C0.473371212,56.0513151 0.0593703085,55.6710138 0.0316572811,55.179395 L0.0316572811,1.51591745 C0.0593703085,1.02429877 0.473371212,0.643997444 0.965697186,0.657908172 L10.8762245,0.657908172 C15.8011622,0.657908172 18.7579444,1.51591745 21.1294353,3.84739847 C23.6707517,6.33653494 24.4349661,9.21374624 24.4349661,14.9712007 C24.4349661,18.8610449 23.9254898,22.2839865 20.8777297,25.0823701 C19.8045292,26.1090951 18.4955344,26.8566067 17.0657552,27.2592275 C18.6274858,27.5783257 20.0668973,28.3330647 21.2173806,29.4360851 C24.5198788,32.5467477 24.9414098,36.6852021 24.9414098,40.6265875 C24.9414098,47.4815662 23.8405771,50.4376054 21.2992607,52.8479139 Z M10.9490068,4.78120362 L5.96644981,4.78120362 C5.47412383,4.7672929 5.06012292,5.14759423 5.03240991,5.6392129 L5.03240991,24.4547803 C5.06012292,24.9463989 5.47412383,25.3267003 5.96644981,25.3127895 L10.9490068,25.3127895 C16.3834208,25.3127895 19.4402787,22.4355782 19.4402787,15.0469966 C19.4402787,6.95806107 16.3834208,4.78120362 10.9490068,4.78120362 Z M10.9490068,29.3602892 L5.96644981,29.3602892 C5.47412383,29.3463784 5.06012292,29.7266796 5.03240991,30.2182985 L5.03240991,51.0560997 C5.06012292,51.5477183 5.47412383,51.9280195 5.96644981,51.9141087 L10.9490068,51.9141087 C16.7109413,51.9141087 19.9315594,49.488641 19.9315594,40.6356832 C19.9436898,32.5467477 16.7109413,29.3572573 10.9490068,29.3572573 L10.9490068,29.3602892 Z M33.2113022,55.179395 L33.2113022,1.51591745 C33.2390153,1.02429877 33.653016,0.643997444 34.1453419,0.657908172 L37.2749822,0.657908172 C37.7673082,0.643997444 38.1813091,1.02429877 38.2090222,1.51591745 L38.2090222,55.179395 C38.1813091,55.6710138 37.7673082,56.0513151 37.2749822,56.0374043 L34.1453419,56.0374043 C33.653016,56.0513151 33.2390153,55.6710138 33.2113022,55.179395 Z M59.7738202,56.6589305 C55.8769329,56.6589305 52.82614,55.4158783 50.7912676,53.3936443 C46.9792929,49.6614555 46.5456316,45.3047088 46.5456316,28.3476562 C46.5456316,11.3906037 46.9701952,7.0368888 50.7912676,3.30166819 C52.8322053,1.27943433 55.8829979,0.0363820186 59.7738202,0.0363820186 C63.6646422,0.0363820186 66.466762,1.20363845 68.5016345,3.06821692 C70.8640277,5.30874289 72.1407512,8.62253843 72.2954134,12.4517459 C72.2838162,12.9529267 71.8687768,13.3502339 71.3674389,13.3400735 L68.2377986,13.3400735 C67.7542414,13.354635 67.343854,12.9883097 67.3037586,12.5063189 C67.1218029,8.33148228 65.4993635,4.15967746 59.7798852,4.15967746 C57.3234816,4.15967746 55.6282598,4.93885904 54.4425145,6.18191134 C51.9861106,8.91056276 51.5615471,12.0939894 51.5615471,28.3506881 C51.5615471,44.6073867 51.9861106,47.796877 54.4425145,50.5194648 C55.6282598,51.7625173 57.3234816,52.5416988 59.7798852,52.5416988 C64.1013363,52.5416988 67.3219544,49.4310362 67.3219544,44.2193118 L67.3219544,31.4613507 C67.2942413,30.9697321 66.8802403,30.5894306 66.3879143,30.6033414 L59.7738202,30.6033414 L59.7738202,26.7134972 L71.3795691,26.7134972 C71.8718951,26.6995865 72.285896,27.0798878 72.3136091,27.5715065 L72.3136091,44.2132483 C72.3196744,52.4507437 66.4728269,56.6589305 59.7738202,56.6589305 Z M100.92313,54.0151705 C98.8882573,55.6493295 96.1771157,56.6589305 92.6198791,56.6589305 C88.7229918,56.6589305 85.6721992,55.4158783 83.6373268,53.3936443 C79.8253521,49.6614555 79.3916908,45.3047088 79.3916908,28.3476562 C79.3916908,11.3906037 79.8162544,7.0368888 83.6373268,3.30166819 C85.6721992,1.27943433 88.7229918,0.0363820186 92.6198791,0.0363820186 C96.4318538,0.0363820186 99.2279083,1.12481074 101.262781,2.99242104 C103.688859,5.22991519 104.901897,8.60434744 105.123277,12.4365867 C105.123364,12.6820763 105.02419,12.9171771 104.848289,13.0884656 C104.672389,13.2597541 104.434701,13.3526836 104.189237,13.3461372 L101.077793,13.3461372 C100.595312,13.3608025 100.185364,12.9961997 100.143753,12.5154144 C100.031547,10.0141507 99.3916685,7.6462876 97.7904574,6.03638328 C96.6047117,4.86912683 94.9944028,4.16877297 92.6350424,4.16877297 C90.1786385,4.16877297 88.4834167,4.94795455 87.2976714,6.19100685 C84.8412675,8.91965825 84.416704,12.1030849 84.416704,28.3597836 C84.416704,44.6164824 84.8412675,47.8059727 87.2976714,50.5285602 C88.4834167,51.7716127 90.1786385,52.5507942 92.6350424,52.5507942 C95.006533,52.5507942 96.6168422,51.8504405 97.7904574,50.6831839 C99.3916685,49.0732796 100.034579,46.7054166 100.143753,44.2041526 C100.176163,43.7161409 100.588787,43.3411222 101.077793,43.355239 L104.19227,43.355239 C104.437734,43.3486926 104.675422,43.441622 104.851322,43.6129106 C105.027222,43.7841992 105.126397,44.0193 105.12631,44.2647895 C104.895832,48.3062254 103.606979,51.7685808 100.92313,54.0151705 Z M132.32264,55.179395 L132.32264,29.9818152 L117.41136,29.9818152 L117.41136,55.179395 C117.383647,55.6710138 116.969647,56.0513151 116.477321,56.0374043 L113.34768,56.0374043 C112.855354,56.0513151 112.441354,55.6710138 112.41364,55.179395 L112.41364,1.51591745 C112.441354,1.02429877 112.855354,0.643997444 113.34768,0.657908172 L116.483386,0.657908172 C116.973385,0.647327508 117.383702,1.02670845 117.41136,1.51591745 L117.41136,25.7705966 L132.32264,25.7705966 L132.32264,1.51591745 C132.350353,1.02429877 132.764354,0.643997444 133.25668,0.657908172 L136.386321,0.657908172 C136.879809,0.642320621 137.295661,1.02308651 137.323393,1.51591745 L137.323393,55.179395 C137.29568,55.6710138 136.881679,56.0513151 136.389353,56.0374043 L133.25668,56.0374043 C132.764354,56.0513151 132.350353,55.6710138 132.32264,55.179395 Z M167.300615,55.3491779 L164.295312,41.5603926 C164.192674,41.1445616 163.813763,40.8566611 163.385532,40.8691343 L150.851809,40.8691343 C150.422683,40.8569834 150.043458,41.1463853 149.94203,41.5634245 L147.015573,55.343114 C146.914145,55.7601533 146.53492,56.0495555 146.105794,56.0374043 L142.606177,56.0374043 C142.335713,56.0517292 142.073732,55.9406657 141.896011,55.7363369 C141.718289,55.5320081 141.644652,55.2572088 141.696398,54.9914212 L154.736565,1.32794368 C154.847515,0.920564284 155.224289,0.643077253 155.646345,0.657908172 L158.818441,0.657908172 C159.241369,0.643424914 159.618443,0.922389148 159.72822,1.33097552 L172.534878,54.9944531 C172.585558,55.2597829 172.511431,55.5336768 172.333844,55.737259 C172.156257,55.9408412 171.894922,56.0515133 171.625099,56.0374043 L168.21646,56.0374043 C167.786883,56.0531146 167.404928,55.7660884 167.300615,55.3491779 Z M157.120187,8.90146725 L151.324894,35.7210788 C151.281681,35.9834184 151.359108,36.2512516 151.535643,36.4500973 C151.712177,36.648943 151.968993,36.7575951 152.234673,36.7458388 L162.072418,36.7458388 C162.338722,36.7577767 162.596153,36.6487292 162.772815,36.4491516 C162.949477,36.2495744 163.026435,35.9808564 162.982197,35.7180469 L157.120187,8.90146725 Z M176.989763,55.179395 L176.989763,1.51591745 C177.017476,1.02429877 177.431477,0.643997444 177.923803,0.657908172 L181.053443,0.657908172 C181.545769,0.643997444 181.95977,1.02429877 181.987483,1.51591745 L181.987483,55.179395 C181.95977,55.6710138 181.545769,56.0513151 181.053443,56.0374043 L177.926836,56.0374043 C177.433348,56.0529917 177.017495,55.672226 176.989763,55.179395 Z M213.253559,55.4825785 L196.613699,12.8701391 L196.613699,55.179395 C196.585986,55.6710138 196.171985,56.0513151 195.679659,56.0374043 L192.550019,56.0374043 C192.057693,56.0513151 191.643692,55.6710138 191.615979,55.179395 L191.615979,1.51591745 C191.643692,1.02429877 192.057693,0.643997444 192.550019,0.657908172 L195.955625,0.657908172 C196.338524,0.642490232 196.691996,0.862453198 196.847209,1.21273396 L213.487069,43.8130459 L213.390026,1.51591745 C213.416159,1.0230975 213.830624,0.641023979 214.324066,0.654876336 L217.468869,0.654876336 C217.952972,0.654187543 218.35283,1.03262493 218.378648,1.51591745 L218.378648,55.179395 C218.350935,55.6710138 217.936934,56.0513151 217.444608,56.0374043 L214.133012,56.0374043 C213.754466,56.0477962 213.407105,55.8286547 213.253559,55.4825785 Z"/>
</svg>
